contributed-vectors/viu.svg

<svg xmlns="http://www.w3.org/2000/svg" width="192" height="192" fill="none"><g clip-path="url(#a)"><path fill="#F9DE81" d="M172 28.6v133.8c0 5.3-4.3 9.6-9.6 9.6H28.6c-5.3 0-9.6-4.3-9.6-9.6V28.6c0-5.3 4.3-9.6 9.6-9.6h133.9c5.2 0 9.5 4.3 9.5 9.6Z"/><path fill="#fff" d="M132 95.5c0 20.4-16.4 36.5-36.5 36.5C75.1 132 59 115.9 59 95.5 59 75.4 75.1 59 95.5 59c20.1 0 36.5 16.4 36.5 36.5ZM95.5 65.4c-16.7 0-30.4 13.4-30.4 30.1 0 16.7 13.7 30.4 30.4 30.4s30.1-13.7 30.1-30.4-13.4-30.1-30.1-30.1Z"/><path fill="#fff" d="M116.2 95.2c0-3.3-.6-6.4-4.9-8.5L84.2 74.2c-1.2 0-1.8.3-1.8 1.2v7.3c0 .6.6 1.5 1.5 1.8l20.7 8.5c.9.6 1.8 1.2 1.8 2.4 0 .9-.9 1.8-1.8 2.1L83.9 106c-.9.3-1.5 1.2-1.5 1.8v7.6c0 .6.6.9 1.8.9l27.1-12.3c4.3-2.1 4.9-4.9 4.9-8.5v-.3Z"/></g><defs><clipPath id="a"><path fill="#fff" d="M0 0h192v192H0z"/></clipPath></defs></svg>

<svg width="192" height="192" viewBox="0 0 192 192" fill="none" xmlns="http://www.w3.org/2000/svg">
<g clip-path="url(#clip0)">
<path d="M172 28.6V162.4C172 167.7 167.7 172 162.4 172H28.6C23.3 172 19 167.7 19 162.4V28.6C19 23.3 23.3 19 28.6 19H162.5C167.7 19 172 23.3 172 28.6Z" fill="#F9DE81"/>
<path d="M132 95.5C132 115.9 115.6 132 95.5 132C75.1 132 59 115.9 59 95.5C59 75.4 75.1 59 95.5 59C115.6 59 132 75.4 132 95.5ZM95.5 65.4C78.8 65.4 65.1 78.8 65.1 95.5C65.1 112.2 78.8 125.9 95.5 125.9C112.2 125.9 125.6 112.2 125.6 95.5C125.6 78.8 112.2 65.4 95.5 65.4Z" fill="white"/>
<path d="M116.2 95.2C116.2 91.9 115.6 88.8 111.3 86.7L84.1999 74.2C82.9999 74.2 82.3999 74.5 82.3999 75.4V82.7C82.3999 83.3 82.9999 84.2 83.8999 84.5L104.6 93C105.5 93.6 106.4 94.2 106.4 95.4C106.4 96.3 105.5 97.2 104.6 97.5L83.8999 106C82.9999 106.3 82.3999 107.2 82.3999 107.8V115.4C82.3999 116 82.9999 116.3 84.1999 116.3L111.3 104C115.6 101.9 116.2 99.1 116.2 95.5V95.2Z" fill="white"/>
</g>
<defs>
<clipPath id="clip0">
<rect width="192" height="192" fill="white"/>
</clipPath>
</defs>
</svg>
